!!!COM: Mozart	
!!!OTL: 12 Variations on "Ah Vous dirais-je, Maman" for the Piano,	
!!!Variation: Theme c	
**kern	**kern
*Ilh	*Irh
*clefF4	*clefG2
*k[]	*k[]
*M2/4	*M2/4
*C:	*C:
=-	=-
4C	4cc
4c	4cc
=	=
4e	4gg
4c	4gg
=	=
4f	4aa
4c	4aa
=	=
4e	4gg
4c	4gg
=	=
4d	4ff
4B	4ff
=	=
4c	4ee
4A	4ee
=	=
4F	(4dd
4G	8.ddL
.	16eeJk
=	=
2C	2cc)
=	=
*-	*-
